svgs/rizline_cn.svg

<svg width="192" height="192" viewBox="0 0 192 192" fill="none" xmlns="http://www.w3.org/2000/svg">
<path d="M168 21L156 30L171 36L159 45" stroke="#000" stroke-width="10" stroke-linecap="round" stroke-linejoin="round"/>
<path d="M23 83.4734C23 116.872 50.0749 143.947 83.4734 143.947C100.173 143.947 115.291 137.178 126.234 126.235M23 83.4734C23 50.0749 50.0749 23 83.4734 23C116.872 23 143.947 50.0749 143.947 83.4734C143.947 100.173 137.178 115.291 126.234 126.235M23 83.4734V169M126.234 126.235L169 169" stroke="#000" stroke-width="14" stroke-linecap="round" stroke-linejoin="round"/>
</svg>

<svg xmlns="http://www.w3.org/2000/svg" width="192" height="192" fill="none"><path stroke="#000" stroke-linecap="round" stroke-linejoin="round" stroke-width="10" d="m168 21-12 9 15 6-12 9"/><path stroke="#000" stroke-linecap="round" stroke-linejoin="round" stroke-width="14" d="M23 83.473c0 33.399 27.075 60.474 60.473 60.474 16.7 0 31.818-6.769 42.761-17.712M23 83.473C23 50.075 50.075 23 83.473 23c33.399 0 60.474 27.075 60.474 60.473 0 16.7-6.769 31.818-17.713 42.762M23 83.473V169m103.234-42.765L169 169"/></svg>
